v2/src/assets/icones/icon__calendar.svg

<svg width="35" height="39" viewBox="0 0 35 39" fill="none" xmlns="http://www.w3.org/2000/svg">
<path d="M0.99292 34.5845C0.99292 36.5513 2.58862 38.147 4.55542 38.147H30.6804C32.6472 38.147 34.2429 36.5513 34.2429 34.5845V14.397H0.99292V34.5845ZM24.7429 20.0376C24.7429 19.5478 25.1437 19.147 25.6335 19.147H28.6023C29.0921 19.147 29.4929 19.5478 29.4929 20.0376V23.0063C29.4929 23.4962 29.0921 23.897 28.6023 23.897H25.6335C25.1437 23.897 24.7429 23.4962 24.7429 23.0063V20.0376ZM24.7429 29.5376C24.7429 29.0478 25.1437 28.647 25.6335 28.647H28.6023C29.0921 28.647 29.4929 29.0478 29.4929 29.5376V32.5063C29.4929 32.9962 29.0921 33.397 28.6023 33.397H25.6335C25.1437 33.397 24.7429 32.9962 24.7429 32.5063V29.5376ZM15.2429 20.0376C15.2429 19.5478 15.6437 19.147 16.1335 19.147H19.1023C19.5921 19.147 19.9929 19.5478 19.9929 20.0376V23.0063C19.9929 23.4962 19.5921 23.897 19.1023 23.897H16.1335C15.6437 23.897 15.2429 23.4962 15.2429 23.0063V20.0376ZM15.2429 29.5376C15.2429 29.0478 15.6437 28.647 16.1335 28.647H19.1023C19.5921 28.647 19.9929 29.0478 19.9929 29.5376V32.5063C19.9929 32.9962 19.5921 33.397 19.1023 33.397H16.1335C15.6437 33.397 15.2429 32.9962 15.2429 32.5063V29.5376ZM5.74292 20.0376C5.74292 19.5478 6.1437 19.147 6.63354 19.147H9.60229C10.0921 19.147 10.4929 19.5478 10.4929 20.0376V23.0063C10.4929 23.4962 10.0921 23.897 9.60229 23.897H6.63354C6.1437 23.897 5.74292 23.4962 5.74292 23.0063V20.0376ZM5.74292 29.5376C5.74292 29.0478 6.1437 28.647 6.63354 28.647H9.60229C10.0921 28.647 10.4929 29.0478 10.4929 29.5376V32.5063C10.4929 32.9962 10.0921 33.397 9.60229 33.397H6.63354C6.1437 33.397 5.74292 32.9962 5.74292 32.5063V29.5376ZM30.6804 4.89697H27.1179V1.33447C27.1179 0.681348 26.5835 0.146973 25.9304 0.146973H23.5554C22.9023 0.146973 22.3679 0.681348 22.3679 1.33447V4.89697H12.8679V1.33447C12.8679 0.681348 12.3335 0.146973 11.6804 0.146973H9.30542C8.65229 0.146973 8.11792 0.681348 8.11792 1.33447V4.89697H4.55542C2.58862 4.89697 0.99292 6.49268 0.99292 8.45947V12.022H34.2429V8.45947C34.2429 6.49268 32.6472 4.89697 30.6804 4.89697Z" fill="black"/>
</svg>

<?xml version="1.0" encoding="utf-8"?>
<!-- Generator: Adobe Illustrator 26.3.1, SVG Export Plug-In . SVG Version: 6.00 Build 0)  -->
<svg version="1.1" id="Camada_1" xmlns="http://www.w3.org/2000/svg" xmlns:xlink="http://www.w3.org/1999/xlink" x="0px" y="0px"
	 viewBox="0 0 35 39" style="enable-background:new 0 0 35 39;" xml:space="preserve">
<style type="text/css">
	.st0{fill:#391741;}
</style>
<path class="st0" d="M1,34.6c0,2,1.6,3.6,3.6,3.6h26.1c2,0,3.6-1.6,3.6-3.6V14.4H1V34.6z M24.7,20c0-0.5,0.4-0.9,0.9-0.9h3
	c0.5,0,0.9,0.4,0.9,0.9v3c0,0.5-0.4,0.9-0.9,0.9h-3c-0.5,0-0.9-0.4-0.9-0.9V20z M24.7,29.5c0-0.5,0.4-0.9,0.9-0.9h3
	c0.5,0,0.9,0.4,0.9,0.9v3c0,0.5-0.4,0.9-0.9,0.9h-3c-0.5,0-0.9-0.4-0.9-0.9V29.5z M15.2,20c0-0.5,0.4-0.9,0.9-0.9h3
	c0.5,0,0.9,0.4,0.9,0.9v3c0,0.5-0.4,0.9-0.9,0.9h-3c-0.5,0-0.9-0.4-0.9-0.9V20z M15.2,29.5c0-0.5,0.4-0.9,0.9-0.9h3
	c0.5,0,0.9,0.4,0.9,0.9v3c0,0.5-0.4,0.9-0.9,0.9h-3c-0.5,0-0.9-0.4-0.9-0.9V29.5z M5.7,20c0-0.5,0.4-0.9,0.9-0.9h3
	c0.5,0,0.9,0.4,0.9,0.9v3c0,0.5-0.4,0.9-0.9,0.9h-3c-0.5,0-0.9-0.4-0.9-0.9V20z M5.7,29.5c0-0.5,0.4-0.9,0.9-0.9h3
	c0.5,0,0.9,0.4,0.9,0.9v3c0,0.5-0.4,0.9-0.9,0.9h-3c-0.5,0-0.9-0.4-0.9-0.9V29.5z M30.7,4.9h-3.6V1.3c0-0.7-0.5-1.2-1.2-1.2h-2.4
	c-0.7,0-1.2,0.5-1.2,1.2v3.6h-9.5V1.3c0-0.7-0.5-1.2-1.2-1.2H9.3c-0.7,0-1.2,0.5-1.2,1.2v3.6H4.6C2.6,4.9,1,6.5,1,8.5V12h33.2V8.5
	C34.2,6.5,32.6,4.9,30.7,4.9z"/>
</svg>
